packages/ffe-icons/icons/filled/lg/pending.svg

<svg xmlns="http://www.w3.org/2000/svg" height="40" viewBox="0 -960 960 960" width="40"><path d="M273.279-434.873q18.823 0 31.951-13.176t13.128-31.999q0-18.823-13.176-31.951t-32-13.128q-18.823 0-31.951 13.176t-13.128 31.999q0 18.823 13.177 31.951 13.176 13.128 31.999 13.128Zm206.769 0q18.823 0 31.951-13.176t13.128-31.999q0-18.823-13.176-31.951t-31.999-13.128q-18.823 0-31.951 13.176t-13.128 31.999q0 18.823 13.176 31.951t31.999 13.128Zm206.359 0q18.823 0 31.951-13.176t13.128-31.999q0-18.823-13.176-31.951t-31.999-13.128q-18.824 0-31.952 13.176-13.127 13.176-13.127 31.999t13.176 31.951q13.176 13.128 31.999 13.128ZM480.244-100.001q-78.915 0-148.053-29.92-69.139-29.92-120.731-81.544-51.593-51.624-81.526-120.727-29.933-69.103-29.933-147.946t29.92-148.106q29.92-69.262 81.544-120.575 51.624-51.314 120.727-81.247 69.103-29.933 147.946-29.933t148.106 29.92q69.262 29.92 120.575 81.21 51.314 51.291 81.247 120.629 29.933 69.337 29.933 147.996 0 78.915-29.92 148.053-29.92 69.139-81.21 120.609-51.291 51.469-120.629 81.525-69.337 30.056-147.996 30.056Z"/></svg>

<svg xmlns="http://www.w3.org/2000/svg" viewBox="0 -960 960 960" width="32" height="32"><path d="M273.28-434.87q18.82 0 31.95-13.18 13.13-13.18 13.13-32T305.18-512q-13.17-13.13-32-13.13-18.82 0-31.95 13.18-13.13 13.18-13.13 32T241.28-448q13.18 13.13 32 13.13Zm206.77 0q18.82 0 31.95-13.18 13.13-13.18 13.13-32T511.95-512q-13.18-13.13-32-13.13T448-511.95q-13.13 13.18-13.13 32T448.05-448q13.18 13.13 32 13.13Zm206.36 0q18.82 0 31.95-13.18 13.13-13.18 13.13-32T718.31-512q-13.18-13.13-32-13.13t-31.95 13.18q-13.13 13.18-13.13 32T654.41-448q13.17 13.13 32 13.13ZM480.24-100q-78.91 0-148.05-29.92-69.14-29.92-120.73-81.54-51.59-51.63-81.53-120.73Q100-401.3 100-480.14q0-78.84 29.92-148.1 29.92-69.27 81.54-120.58 51.63-51.31 120.73-81.25Q401.3-860 480.14-860q78.84 0 148.1 29.92 69.27 29.92 120.58 81.21 51.31 51.29 81.25 120.63Q860-558.9 860-480.24q0 78.91-29.92 148.05-29.92 69.14-81.21 120.61-51.29 51.47-120.63 81.52Q558.9-100 480.24-100Z"/></svg>
